X: 1
T: Carlisle Lasses
R: strathspey
O: Athol Collection
B: Athol Collection
Z: John Chambers <jc:trillian.mit.edu>
M: 4/4
L: 1/8
K: F
C \
| "F"F>G A>F "C"E<G "F"F2 \
| "F"A>B c>B A<c c2 \
| "Bb"d>f "F"c>f "Gm"B>f "F"A>f \
|1 "F"(3agf (3edc "Bb"(3dcB "C7"(3ABG \
:|2 "F"(3agf "C7"(3def "F"A<F F ||
|: B \
| "F"A<c c>B A<f f2 \
| "C7"e<g g>e "F"f<a a2 \
| "Gm"b>g "F"a>f "C"g>e "Dm"f>g \
|1 "F"(3agf (3edc "Bb"(3dcB "C7"(3ABG \
:|2 "F"(3agf "C7"(3efg "F"a<f f |]
